X:19
T:The Keach i' the Creel
Z:Jack Campin, http://www.campin.me.uk/
S:Northumbrian Minstrelsy
M:2/4
L:1/8
K:D
(D/`E/)|F    d c  d| B  A     A
 A     |F    d c  d| B3
 D/ E/ |F/F/ d c  d| B (B/A/) F
 D/ E/ |F/F/ D B, C|(D>```E)  F>
 E     |F/F/ D B, C| D3       |]

